X:1
T:At The End Of A Rainbow
T:At The End Of A Rainbow
C:Jimmy Krondes
Z:All Rights Reserved
L:1/8
M:6/8
K:C
V:1 treble nm="Piano" snm="Pno."
%%MIDI program 0
V:1
"C" cE,G, CG,E, |"Em" BE,G, B,G,E, |"F" AA,C FCA, |"G7" GB,D FDB, |"C" cE,G, CG,E, | %5
w: |||||
w: |||||
w: |||||
"Em" BE,G, B,G,E, |"F" AA,C FCA, |"G7" GB,D FDB,- | B,4 G,G, |"C" C4 CC |"Em" G E4 E | %11
w: ||||||
w: |||* At the|end of a|rain- bow you'll|
w: ||||||
"F" F2 G2 AF |"G" D4 G,G, |"C" C4 CC |"Em" G E4 E |"F" F2 G2 AF |"G" D4 EF |"C" G4 GG | %18
w: |||||||
w: find a pot of|gold. At the|end of a|sto- ry you'll|find it's all been|told. But our|love has a|
w: |||||||
"Am" B A4 A |"F" G2 F2 EF |"G" E4 DD |"C" C4- CB, |"Am" A, B,3 C2 |"Dm" E4 DC |"G" D4 G,G, | %25
w: |||||||
w: trea- sure our|hearts can al- ways|spend, and it|has _ a|sto- ry with-|out an- y|end At the|
w: |||||||
"C" C4 CC |"Em" G E4 E |"F" FG A3 F |"G" D4 G,G, |"C" C4 CC |"Em" G E4 E |"F" FG A3 F |"G" D4 EF | %33
w: ||||||||
w: end of a|riv- er the|wa- ter stops it's|flow. At the|end of a|high- way there's|no place you can|go But just|
w: ||||||||
"C" G4 GG |"Am" B A4 A |"F" G3 FEF |"G" E4 DD |"C" C4 B,C |"Am" E4 FG |"Dm" A3 B,2 (D |"C" C6) | %41
w: ||||||||
w: tell me you|love me and|you are on- ly|mine, and our|love will go|on till the|end of time.|_|
w: ||||||||
"C" cE,G, CG,E, |"Em" BE,G, B,G,E, |"F" AA,C FCA, |"G7" GB,D FDB, | z4 G,G, |"C" C4 CC | %47
w: ||||||
w: ||||At the|end of a|
w: ||||||
"Em" G E4 E |"F" F2 G2 AF |"G" D4 G,G, |"C" C4 CC |"Em" G E4 E |"F" F2 G2 AF |"G" D4 EF | %54
w: |||||||
w: riv- er the|wa- ter stops it's|flow. At the|end of a|high- way there's|no place you can|go But just|
w: |||||||
"C" G4 GG |"Am" B A4 A |"F" A2 A2 AA |"G" B4 cd |"C" e4 dc |"Am" e4 dc |"Dm" (f2 B4- |"G" B4) B2 | %62
w: ||||||||
w: tell me you|love me and|you are on- ly|mine, and our|love will go|on till the|end _|_ of|
w: ||||||||
"C" (d2 c4- |"Am" c6) |"F" G4 A2 |"G" G4 F2 |"C" G6- | G2 z4 |] %68
w: ||||||
w: time. _|_|Till the|end of|time.|_|
w: ||||||

